svg/file/markdown_fill.svg

<?xml version="1.0" encoding="UTF-8"?>
<svg width="24px" height="24px" viewBox="0 0 24 24" version="1.1" xmlns="http://www.w3.org/2000/svg" xmlns:xlink="http://www.w3.org/1999/xlink">
    <title>markdown_fill</title>
    <g id="Icon" stroke="none" stroke-width="1" fill="none" fill-rule="evenodd">
        <g id="File" transform="translate(-384.000000, -432.000000)">
            <g id="markdown_fill" transform="translate(384.000000, 432.000000)">
                <path d="M24,0 L24,24 L0,24 L0,0 L24,0 Z M12.5935,23.2578 L12.5819,23.2595 L12.5109,23.295 L12.4919,23.2987 L12.4767,23.295 L12.4057,23.2595 C12.3958,23.2564 12.387,23.259 12.3821,23.2649 L12.378,23.2758 L12.3609,23.7031 L12.3659,23.7235 L12.3769,23.7357 L12.4805,23.8097 L12.4953,23.8136 L12.5071,23.8097 L12.6107,23.7357 L12.6233,23.7197 L12.6267,23.7031 L12.6096,23.2758 C12.6076,23.2657 12.601,23.2593 12.5935,23.2578 Z M12.8584,23.1453 L12.8445,23.1473 L12.6598,23.2397 L12.6499,23.2499 L12.6472,23.2611 L12.6651,23.6906 L12.6699,23.7034 L12.6784,23.7105 L12.8793,23.8032 C12.8914,23.8069 12.9022,23.803 12.9078,23.7952 L12.9118,23.7812 L12.8777,23.1665 C12.8753,23.1546 12.8674,23.147 12.8584,23.1453 Z M12.143,23.1473 C12.1332,23.1424 12.1222,23.1453 12.1156,23.1526 L12.1099,23.1665 L12.0758,23.7812 C12.0751,23.7927 12.0828,23.8019 12.0926,23.8046 L12.1083,23.8032 L12.3092,23.7105 L12.3186,23.7024 L12.3225,23.6906 L12.3404,23.2611 L12.3372,23.2485 L12.3278,23.2397 L12.143,23.1473 Z" id="MingCute" fill-rule="nonzero"></path>
                <path d="M20,5 C21.0543909,5 21.9181678,5.81587733 21.9945144,6.85073759 L22,7 L22,17 C22,18.0543909 21.18415,18.9181678 20.1492661,18.9945144 L20,19 L4,19 C2.94563773,19 2.08183483,18.18415 2.00548573,17.1492661 L2,17 L2,7 C2,5.94563773 2.81587733,5.08183483 3.85073759,5.00548573 L4,5 L20,5 Z M6.83333,9 L6,9 C5.44772,9 5,9.44772 5,10 L5,14 C5,14.5523 5.44772,15 6,15 C6.55228,15 7,14.5523 7,14 L7,12.3591 L7.62584,13.4856 C7.80221,13.8031 8.13683,14 8.5,14 C8.86317,14 9.19779,13.8031 9.37416,13.4856 L10,12.3591 L10,14 C10,14.5523 10.4477,15 11,15 C11.5523,15 12,14.5523 12,14 L12,10 C12,9.44772 11.5523,9 11,9 L10.1667,9 C9.8035,9 9.46888,9.19689 9.29251,9.51436 L8.5,10.9409 L7.70749,9.51436 C7.53112,9.19689 7.1965,9 6.83333,9 Z M16,9 C15.48715,9 15.0644908,9.38604429 15.0067275,9.88337975 L15,10 L15,11.6337 C14.6176,11.4126 14.1201,11.4657 13.7929,11.7929 C13.4324385,12.1533615 13.4047107,12.7206207 13.7097166,13.1128973 L13.7929,13.2071 L15.2929,14.7071 C15.6533615,15.0675615 16.2206207,15.0952893 16.6128973,14.7902834 L16.7071,14.7071 L18.2071,13.2071 C18.5976,12.8166 18.5976,12.1834 18.2071,11.7929 C17.91262,11.49842 17.480197,11.425961 17.1178876,11.5755959 L17,11.6337 L17,10 C17,9.44772 16.5523,9 16,9 Z" id="形状" fill="#09244B"></path>
            </g>
        </g>
    </g>
</svg>

<svg xmlns="http://www.w3.org/2000/svg" width="24" height="24"><g fill="none" fill-rule="evenodd"><path d="M24 0v24H0V0h24ZM12.594 23.258l-.012.002-.071.035-.02.004-.014-.004-.071-.036c-.01-.003-.019 0-.024.006l-.004.01-.017.428.005.02.01.013.104.074.015.004.012-.004.104-.074.012-.016.004-.017-.017-.427c-.002-.01-.009-.017-.016-.018Zm.264-.113-.014.002-.184.093-.01.01-.003.011.018.43.005.012.008.008.201.092c.012.004.023 0 .029-.008l.004-.014-.034-.614c-.003-.012-.01-.02-.02-.022Zm-.715.002a.023.023 0 0 0-.027.006l-.006.014-.034.614c0 .012.007.02.017.024l.015-.002.201-.093.01-.008.003-.011.018-.43-.003-.012-.01-.01-.184-.092Z"/><path fill="#09244B" d="M20 5a2 2 0 0 1 1.995 1.85L22 7v10a2 2 0 0 1-1.85 1.995L20 19H4a2 2 0 0 1-1.995-1.85L2 17V7a2 2 0 0 1 1.85-1.995L4 5h16ZM6.833 9H6a1 1 0 0 0-1 1v4a1 1 0 1 0 2 0v-1.64l.626 1.126a1 1 0 0 0 1.748 0L10 12.359V14a1 1 0 1 0 2 0v-4a1 1 0 0 0-1-1h-.833a1 1 0 0 0-.874.514L8.5 10.941l-.793-1.427A1 1 0 0 0 6.833 9ZM16 9a1 1 0 0 0-.993.883L15 10v1.634a1 1 0 0 0-1.29 1.479l.083.094 1.5 1.5a1 1 0 0 0 1.32.083l.094-.083 1.5-1.5a1 1 0 0 0-1.09-1.631l-.117.058V10a1 1 0 0 0-1-1Z"/></g></svg>
